svgs/sharp-solid/hand-point-ribbon.svg

<svg xmlns="http://www.w3.org/2000/svg" viewBox="0 0 448 512"><!--! Font Awesome Pro 6.6.0 by @fontawesome - https://fontawesome.com License - https://fontawesome.com/license (Commercial License) Copyright 2024 Fonticons, Inc. --><path d="M64 0l64 0 0 32 32 0 0 96L0 128 43.6 80 0 32l64 0L64 0zm96 128l0 32 0 80 64 0 0-112-64 0zM64 160l64 0 0 80-64 0 0-80zm192 0l64 0 0 128-64 0 0-128zm96 32l64 0 0 128-64 0 0-128zM32 363l0-91 192 0 0 48 0 32-96 0-16 0 0 32 16 0 112 0 16 0 0-16 0-48 64 0 0 32 96 0c0 88.4-71.6 160-160 160l-61.7 0c-42.4 0-83.1-16.9-113.1-46.9L69.5 453.5C45.5 429.5 32 396.9 32 363z"/></svg>

<svg xmlns="http://www.w3.org/2000/svg" viewBox="0 0 448 512"><!--! Font Awesome Pro 6.4.0 by @fontawesome - https://fontawesome.com License - https://fontawesome.com/license (Commercial License) Copyright 2023 Fonticons, Inc. --><path d="M64 0h64V32h32v96H0L43.6 80 0 32H64V0zm96 128v32 80h64V128H160zM64 160h64v80H64V160zm192 0h64V288H256V160zm96 32h64V320H352V192zM32 363V272H224v48 32H128 112v32h16H240h16V368 320h64v32h96c0 88.4-71.6 160-160 160H194.3c-42.4 0-83.1-16.9-113.1-46.9L69.5 453.5C45.5 429.5 32 396.9 32 363z"/></svg>
